icons/svg/document-share_48.svg

<?xml version="1.0" encoding="UTF-8"?>
<svg width="48px" height="48px" viewBox="0 0 48 48" version="1.1" xmlns="http://www.w3.org/2000/svg" xmlns:xlink="http://www.w3.org/1999/xlink">
    <!-- Generator: Sketch 60.1 (88133) - https://sketch.com -->
    <title>content/document-share_48</title>
    <desc>Created with Sketch.</desc>
    <g id="content/document-share_48" stroke="none" stroke-width="1" fill="none" fill-rule="evenodd">
        <path d="M40.269,13.065 L40.268,13.065 L28.939,1.732 C28.467,1.26 27.839,1 27.171,1 L12,1 C9.243,1 7,3.243 7,6 L7,42 C7,44.757 9.243,47 12,47 L36,47 C37.338,47 38.595,46.479 39.54,45.531 C40.485,44.583 41.003,43.325 41.000013,41.988 L41.000013,14.833 C41.000013,14.165 40.74,13.538 40.269,13.065 L40.269,13.065 Z M40,15 L30.5,15 C28.57,15 27,13.43 27,11.5 L27,2 L27.171,2 C27.572,2 27.949,2.156 28.232,2.439 L39.561,13.772 C39.84,14.052 40,14.438 40,14.833 L40,15 Z M40.0000162,41.989 C40.003,43.06 39.588,44.066 38.832,44.824 C38.076,45.583 37.07,46 36,46 L12,46 C9.794,46 8,44.206 8,42 L8,6 C8,3.794 9.794,2 12,2 L26,2 L26,11.5 C26,13.981 28.019,16 30.5,16 L40.0000162,16 L40.0000162,41.989 Z M14,39.5 C14,39.775 14.225,40 14.5,40 L33.5,40 C33.775,40 34,39.775 34,39.5 C34,39.225 33.775,39 33.5,39 L14.5,39 C14.225,39 14,39.225 14,39.5 M17.356,26.8516 L23.5,20.7066 L23.5,34.4996 C23.5,34.7756 23.725,34.9996 24,34.9996 C24.275,34.9996 24.5,34.7756 24.5,34.4996 L24.5,20.7066 L30.644,26.8516 C30.838,27.0446 31.157,27.0446 31.351,26.8516 C31.545,26.6566 31.545,26.3376 31.351,26.1436 L24.356,19.1496 C24.356,19.1486 24.356,19.1466 24.354,19.1456 C24.316,19.1076 24.271,19.0826 24.225,19.0596 C24.213,19.0546 24.205,19.0436 24.193,19.0396 C24.132,19.0136 24.066,18.9996 24,18.9996 C23.934,18.9996 23.869,19.0136 23.807,19.0396 C23.794,19.0446 23.785,19.0546 23.773,19.0616 C23.729,19.0836 23.684,19.1086 23.646,19.1456 C23.645,19.1466 23.645,19.1486 23.644,19.1496 L16.649,26.1436 C16.455,26.3376 16.455,26.6566 16.649,26.8516 C16.844,27.0446 17.162,27.0446 17.356,26.8516" id="fill" fill="#171B1F"></path>
    </g>
</svg>

<svg width="48" height="48" viewBox="0 0 48 48" xmlns="http://www.w3.org/2000/svg"><title>content/document-share_48</title><path d="M40 15l-9.5 0c-1.93 0-3.5-1.57-3.5-3.5L27 2l.171 0c.401 0 .778.156 1.061.439l11.329 11.333c.279.28.439.666.439 1.061L40 15zm0 26.989c.003 1.071-.412 2.077-1.168 2.835C38.076 45.583 37.07 46 36 46l-24 0c-2.206 0-4-1.794-4-4L8 6c0-2.206 1.794-4 4-4l14 0 0 9.5c0 2.481 2.019 4.5 4.5 4.5l9.5 0 0 25.989zm.269-28.924c.471.473.731 1.1.731 1.768l0 27.155c.003 1.337-.515 2.595-1.46 3.543C38.595 46.479 37.338 47 36 47l-24 0c-2.757 0-5-2.243-5-5L7 6c0-2.757 2.243-5 5-5l15.171 0c.668 0 1.296.26 1.768.732l11.329 11.333.001 0zM14 39.5c0 .275.225.5.5.5l19 0c.275 0 .5-.225.5-.5 0-.275-.225-.5-.5-.5l-19 0c-.275 0-.5.225-.5.5zm3.356-12.6484l6.144-6.145 0 13.793c0 .276.225.5.5.5.275 0 .5-.224.5-.5l0-13.793 6.144 6.145c.194.193.513.193.707 0 .194-.195.194-.514 0-.708l-6.995-6.994c0-.001 0-.003-.002-.004-.038-.038-.083-.063-.129-.086-.012-.005-.02-.016-.032-.02-.061-.026-.127-.04-.193-.04-.066 0-.131.014-.193.04-.013.005-.022.015-.034.022-.044.022-.089.047-.127.084-.001.001-.001.003-.002.004l-6.995 6.994c-.194.194-.194.513 0 .708.195.193.513.193.707 0z" fill-rule="evenodd"/></svg>
